!!!Melodie: eigene
!!!Typ: Lied
**kern	**silbe	**silbe	**silbe	**silbe	**silbe	**silbe
*clefG2	*lang:DE	*lang:DE	*lang:DE	*lang:DE	*lang:DE	*lang:DE
*k[b-]	*	*	*	*	*	*
*M4/4	*	*	*	*	*	*
*met(c)	*	*	*	*	*	*
4cc	So	bis	In	und	Wenn	du
=	=	=	=	=	=	=
4dd	nimm	an	dein’	mach’	ich	bringst
4cc	denn	mein	Er#	es	auch	mich
4b-	mei#	se#	#bar#	end#	gar	doch
4a	#ne	#lig	#men	#lich	nichts	zum
=	=	=	=	=	=	=
2a	Hän#	En#	hül#	stil#	füh#	Zie#
4g	#de	#de	#le	#le	#le	#le
4a	und	und	mein	in	von	auch
=	=	=	=	=	=	=
2b-	füh#	e#	schwa#	Freud’	dei#	durch
2cc	#re	#wig#	#ches	und	#ner	die
=	=	=	=	=	=	=
2a	mich	#lich.	Herz,	Schmerz.	Macht,	Nacht.
4r	%	%	%	%	%	%
=:|	=	=	=	=	=	=
4a	.	Ich	.	Lass	.	So
=	=	=	=	=	=	=
4g	.	mag	.	ruh’n	.	nimm
4cc	.	al#	.	zu	.	denn
4b	.	#lein	.	dei#	.	mei#
4dd	.	nicht	.	#nen	.	#ne
=	=	=	=	=	=	=
(4.cc	.	ge#	.	Fü#	.	Hän#
8dd)	.	|	.	|	.	|
4ee	.	#hen,	.	#ßen	.	#de
4ff	.	nicht	.	dein	.	und
=	=	=	=	=	=	=
2ee	.	ei#	.	ar#	.	füh#
2dd	.	#nen	.	#mes	.	#re
=	=	=	=	=	=	=
4cc	.	Schritt;	.	Kind,	.	mich,
4r	.	%	.	%	.	%
4cc	.	wo	.	es	.	bis
=	=	=	=	=	=	=
4ff	.	du	.	will	.	an
8Lee	.	wirst	.	die	.	mein
8Jdd	.	|	.	|	.	|
4cc	.	geh’n	.	Au#	.	se#
4cc	.	und	.	#gen	.	#lig
=	=	=	=	=	=	=
2dd	.	ste#	.	schlie#	.	En#
4cc	.	#hen,	.	#ßen	.	#de
4b-	.	da	.	und	.	und
=	=	=	=	=	=	=
(4a	.	nimm	.	glau#	.	e#
2b-)	.	|	.	|	.	|
4g	.	mich	.	#ben	.	#wig#
=	=	=	=	=	=	=
2.f	.	mit.	.	blind.	.	#lich!
==	==	==	==	==	==	==
*-	*-	*-	*-	*-	*-	*-
